packages/core/src/svgs/sn.svg

<svg width="24" height="24" viewBox="0 0 24 24" fill="none" xmlns="http://www.w3.org/2000/svg">
<g clip-path="url(#clip0_31_18915)">
<path d="M0 0H24V24H0V0Z" fill="#F0F3FA"/>
<path d="M12.2228 18.8486C11.5242 18.8486 10.8299 18.8358 10.1314 18.8486C9.77137 18.8615 9.5228 18.6515 9.33851 18.2229C8.70423 16.7572 8.05709 15.3001 7.41851 13.8386C7.1528 13.2258 7.28994 12.8615 7.80423 12.8572C8.72137 12.8486 9.63851 12.8658 10.5514 12.8572C10.9242 12.8572 11.1771 13.0972 11.3657 13.5429C11.8242 14.6144 12.7671 16.7272 12.7671 16.7272C12.7671 16.7272 12.8785 16.9972 12.9728 17.1386C13.0371 17.2372 13.3371 17.4215 13.6199 17.2201C13.8942 17.0229 13.8642 16.7915 13.7057 16.4315C13.2085 15.2958 12.6985 14.1644 12.2142 13.0158C12.1285 12.8058 12.0342 12.5444 12.1799 12.3129C12.2871 12.1372 12.4628 12.0001 12.5999 12.0001C13.4999 12.0001 14.4042 12.0129 15.3085 12.0001C15.6685 11.9958 15.9257 12.1844 16.1057 12.6129C16.4142 13.3286 16.7185 14.0358 17.0399 14.7344C17.2028 15.0858 17.1685 15.3644 16.9714 15.6515C16.3242 16.5858 15.6985 17.5458 15.0299 18.4501C14.9478 18.5572 14.8446 18.6463 14.7267 18.712C14.6087 18.7776 14.4786 18.8183 14.3442 18.8315C13.6414 18.8786 12.9299 18.8486 12.2228 18.8486Z" fill="#FFA529"/>
<path d="M11.7556 5.15576C12.4414 5.15576 13.1228 5.16862 13.8042 5.14719C14.1899 5.13862 14.4642 5.33147 14.6656 5.8029C15.2999 7.26862 15.9514 8.72147 16.5856 10.1829C16.8428 10.77 16.7099 11.1386 16.2171 11.1429C15.2999 11.1515 14.3871 11.1429 13.4742 11.1429C12.8742 11.1429 12.6171 10.44 12.6171 10.44L11.1771 7.2129C11.1771 7.2129 11.0656 6.93862 10.9971 6.82719C10.9499 6.74576 10.6671 6.5529 10.3885 6.74147C10.0971 6.9429 10.1614 7.27719 10.3028 7.59433C10.7485 8.60576 11.2371 9.6129 11.6742 10.6372C11.8114 10.9758 12.0942 11.3272 11.8542 11.7129C11.7128 11.9443 11.4256 12.0043 11.1042 12C10.3071 11.9872 9.50993 11.9829 8.7085 12C8.33564 12.0086 8.06564 11.82 7.87707 11.3658C7.58564 10.6672 7.27707 9.97719 6.96421 9.29576C6.79707 8.92719 6.82707 8.64004 7.04136 8.33576C7.67136 7.43147 8.27564 6.4929 8.92707 5.61433C9.01567 5.49612 9.1268 5.39662 9.25406 5.32159C9.38131 5.24656 9.52217 5.19748 9.6685 5.17719C10.3628 5.11719 11.0614 5.15576 11.7556 5.15576Z" fill="#1740FF"/>
</g>
<defs>
<clipPath id="clip0_31_18915">
<rect width="24" height="24" fill="white"/>
</clipPath>
</defs>
</svg>

<svg xmlns="http://www.w3.org/2000/svg" width="24" height="24" fill="none" viewBox="0 0 24 24"><g clip-path="url(#a)"><path fill="#F0F3FA" d="M0 0h24v24H0z"/><path fill="#FFA529" d="M12.223 18.849c-.699 0-1.393-.013-2.092 0-.36.012-.608-.198-.792-.626-.635-1.466-1.282-2.923-1.92-4.384-.266-.613-.13-.978.385-.982.917-.008 1.835.009 2.747 0 .373 0 .626.24.815.686a316 316 0 0 0 1.401 3.184s.112.27.206.412a.483.483 0 0 0 .647.081c.274-.197.244-.428.086-.788-.497-1.136-1.008-2.268-1.492-3.416-.085-.21-.18-.472-.034-.703.107-.176.283-.313.42-.313.9 0 1.804.013 2.709 0 .36-.004.617.184.797.613.308.716.612 1.423.934 2.121.163.352.129.63-.069.918-.647.934-1.273 1.894-1.941 2.798a.99.99 0 0 1-.686.381c-.703.048-1.414.018-2.121.018"/><path fill="#1740FF" d="M11.756 5.156c.685 0 1.367.013 2.048-.009.386-.008.66.184.862.656.634 1.466 1.285 2.918 1.92 4.38.257.587.124.956-.369.96-.917.008-1.83 0-2.743 0-.6 0-.857-.703-.857-.703l-1.44-3.227s-.111-.274-.18-.386a.46.46 0 0 0-.608-.086c-.292.202-.228.536-.086.853.445 1.012.934 2.019 1.371 3.043.137.339.42.69.18 1.076-.141.231-.428.291-.75.287a64 64 0 0 0-2.395 0c-.373.009-.643-.18-.832-.634a64 64 0 0 0-.913-2.07c-.167-.369-.137-.656.077-.96.63-.905 1.235-1.843 1.886-2.722a1.12 1.12 0 0 1 .742-.437c.694-.06 1.392-.021 2.087-.021"/></g><defs><clipPath id="a"><path fill="#fff" d="M0 0h24v24H0z"/></clipPath></defs></svg>
